icons/1_Primary/paste.gg.svg

<svg width="1024" height="1024" fill="none" xmlns="http://www.w3.org/2000/svg"><g clip-path="url(#a)"><path d="M512 1024c282.77 0 512-229.23 512-512S794.77 0 512 0 0 229.23 0 512s229.23 512 512 512Z" fill="#728DBE"/><path d="M674.56 310.22h-97.07c-9.75-26.94-35.3-46.44-65.49-46.44-30.19 0-55.73 19.51-65.49 46.44h-97.07a46.45 46.45 0 0 0-32.842 13.606A46.442 46.442 0 0 0 303 356.67v325.11a46.438 46.438 0 0 0 46.44 46.44h325.12A46.438 46.438 0 0 0 721 681.78V356.67a46.44 46.44 0 0 0-46.44-46.44m-162.56 0a23.22 23.22 0 1 1-23.22 23.22 23.213 23.213 0 0 1 6.797-16.425A23.226 23.226 0 0 1 512 310.22" fill="#fff"/></g><defs><clipPath id="a"><path fill="#fff" d="M0 0h1024v1024H0z"/></clipPath></defs></svg>

<svg width="1024" height="1024" viewBox="0 0 1024 1024" fill="none" xmlns="http://www.w3.org/2000/svg">
<g clip-path="url(#clip0_2_3090)">
<path d="M512 1024C794.77 1024 1024 794.77 1024 512C1024 229.23 794.77 0 512 0C229.23 0 0 229.23 0 512C0 794.77 229.23 1024 512 1024Z" fill="#728DBE"/>
<path d="M674.56 310.22H577.49C567.74 283.28 542.19 263.78 512 263.78C481.81 263.78 456.27 283.29 446.51 310.22H349.44C343.341 310.22 337.301 311.422 331.666 313.756C326.031 316.09 320.911 319.512 316.598 323.826C312.286 328.139 308.865 333.26 306.532 338.895C304.199 344.531 302.999 350.571 303 356.67V681.78C303 687.879 304.201 693.917 306.535 699.552C308.869 705.186 312.29 710.306 316.602 714.618C320.914 718.93 326.034 722.351 331.668 724.685C337.303 727.019 343.341 728.22 349.44 728.22H674.56C680.659 728.22 686.697 727.019 692.332 724.685C697.966 722.351 703.086 718.93 707.398 714.618C711.71 710.306 715.131 705.186 717.465 699.552C719.799 693.917 721 687.879 721 681.78V356.67C721 344.353 716.107 332.541 707.398 323.832C698.689 315.123 686.877 310.23 674.56 310.23M512 310.23C518.158 310.23 524.064 312.676 528.419 317.031C532.774 321.386 535.22 327.292 535.22 333.45C535.22 339.608 532.774 345.514 528.419 349.869C524.064 354.224 518.158 356.67 512 356.67C505.842 356.67 499.936 354.224 495.581 349.869C491.226 345.514 488.78 339.608 488.78 333.45C488.779 330.4 489.378 327.379 490.545 324.561C491.711 321.743 493.421 319.182 495.577 317.025C497.734 314.867 500.294 313.156 503.112 311.988C505.93 310.821 508.95 310.22 512 310.22" fill="white"/>
</g>
<defs>
<clipPath id="clip0_2_3090">
<rect width="1024" height="1024" fill="white"/>
</clipPath>
</defs>
</svg>
